src/assets/icons/cookieyes.svg

<svg width="188" height="37" viewBox="0 0 188 37" fill="none" xmlns="http://www.w3.org/2000/svg">
<path d="M13.2251 3.9541C19.4896 3.9541 24.1722 7.45409 25.6909 13.1813H18.667C17.5913 10.8904 15.5664 9.80863 13.1618 9.80863C9.23859 9.80863 6.51764 12.7359 6.51764 17.445C6.51764 22.154 9.23859 25.0813 13.1618 25.0813C15.5664 25.0813 17.5913 23.9358 18.667 21.7086H25.6909C24.1722 27.4358 19.4896 30.9358 13.2251 30.9358C5.44191 30.8722 0 25.3358 0 17.3813C0 9.42681 5.44191 3.9541 13.2251 3.9541Z" fill="#404041"/>
<path d="M38.4731 30.9996C32.3351 30.9996 27.7158 26.8632 27.7158 20.1814C27.7158 13.4996 32.4617 9.36328 38.5996 9.36328C44.7376 9.36328 49.4835 13.4996 49.4835 20.1814C49.4835 26.8632 44.6111 30.9996 38.4731 30.9996ZM38.4731 25.3996C40.7511 25.3996 42.9025 23.6814 42.9025 20.1814C42.9025 16.6178 40.8144 14.9633 38.5364 14.9633C36.1951 14.9633 34.1702 16.6178 34.1702 20.1814C34.2335 23.6814 36.1318 25.3996 38.4731 25.3996Z" fill="#404041"/>
<path d="M62.2026 30.9995C56.0646 30.9995 51.4453 26.8632 51.4453 20.1814C51.4453 13.4996 56.1912 9.36322 62.3291 9.36322C68.4671 9.36322 73.2129 13.4996 73.2129 20.1814C73.2129 26.8632 68.3405 30.9995 62.2026 30.9995ZM62.2026 25.3995C64.4806 25.3995 66.632 23.6813 66.632 20.1814C66.632 16.6177 64.5439 14.9632 62.2659 14.9632C59.9246 14.9632 57.8997 16.6177 57.8997 20.1814C57.8997 23.6813 59.8613 25.3995 62.2026 25.3995Z" fill="#404041"/>
<path d="M75.4902 3.9541H81.8813V18.2086L88.2091 9.68135H96.1189L87.4498 20.1813L96.2454 30.6813H88.3357L81.9446 21.8359V30.6813H75.5535V3.9541H75.4902Z" fill="#404041"/>
<path d="M97.6387 4.01757C97.6387 2.04485 99.1573 0.517578 101.435 0.517578C103.713 0.517578 105.232 2.04485 105.232 4.01757C105.232 5.92665 103.713 7.45392 101.435 7.45392C99.1573 7.45392 97.6387 5.92665 97.6387 4.01757ZM98.2715 9.61755H104.663V30.6175H98.2715V9.61755Z" fill="#404041"/>
<path d="M117.57 30.9995C111.432 30.9995 107.003 26.8632 107.003 20.1814C107.003 13.4996 111.369 9.36322 117.57 9.36322C123.645 9.36322 128.011 13.4359 128.011 19.8632C128.011 20.4359 127.948 21.1359 127.885 21.7723H113.394C113.647 24.5086 115.292 25.7813 117.381 25.7813C119.152 25.7813 120.165 24.8904 120.734 23.745H127.568C126.493 27.8177 122.822 30.9995 117.57 30.9995ZM113.457 18.145H121.494C121.494 15.8541 119.722 14.5177 117.57 14.5177C115.419 14.5177 113.837 15.7905 113.457 18.145Z" fill="#404041"/>
<path d="M157.563 30.9995C151.425 30.9995 146.995 26.8632 146.995 20.1814C146.995 13.4996 151.361 9.36322 157.563 9.36322C163.637 9.36322 168.003 13.4359 168.003 19.8632C168.003 20.4359 167.94 21.1359 167.877 21.7723H153.386C153.639 24.5086 155.285 25.7813 157.373 25.7813C159.144 25.7813 160.157 24.8904 160.726 23.745H167.56C166.485 27.8177 162.751 30.9995 157.563 30.9995ZM153.386 18.145H161.422C161.422 15.8541 159.651 14.5177 157.499 14.5177C155.411 14.5177 153.766 15.7905 153.386 18.145Z" fill="#404041"/>
<path d="M179.583 30.9996C174.015 30.9996 170.281 27.8814 169.965 23.8087H176.293C176.419 25.2723 177.748 26.2269 179.52 26.2269C181.165 26.2269 182.051 25.4632 182.051 24.5087C182.051 21.136 170.661 23.5541 170.661 15.8542C170.661 12.2905 173.698 9.36328 179.14 9.36328C184.519 9.36328 187.556 12.3542 187.936 16.4905H181.988C181.798 15.0905 180.722 14.136 178.887 14.136C177.368 14.136 176.546 14.7087 176.546 15.7269C176.546 19.0996 187.872 16.6814 187.999 24.5723C188.062 28.1996 184.835 30.9996 179.583 30.9996Z" fill="#404041"/>
<path d="M134.656 10H128.012L134.086 21.3272H140.731L134.656 10Z" fill="#0056A7"/>
<path d="M133.96 21.0084L134.15 21.3266H140.794L136.428 13.3721L133.96 21.0084Z" fill="#2E3191"/>
<path d="M146.109 0.454102L134.149 21.3268H140.794L152.753 0.454102H146.109Z" fill="#0056A7"/>
<path d="M134.149 24.4443H140.604V30.9989H134.149V24.4443Z" fill="#0056A7"/>
</svg>

<svg width="188" height="37" fill="none" xmlns="http://www.w3.org/2000/svg"><path d="M13.225 3.954c6.265 0 10.947 3.5 12.466 9.227h-7.024c-1.076-2.29-3.1-3.372-5.505-3.372-3.923 0-6.644 2.927-6.644 7.636s2.72 7.636 6.644 7.636c2.404 0 4.43-1.145 5.505-3.372h7.024c-1.519 5.727-6.201 9.227-12.466 9.227C5.442 30.872 0 25.336 0 17.38 0 9.427 5.442 3.954 13.225 3.954ZM38.473 31c-6.138 0-10.757-4.137-10.757-10.819 0-6.681 4.746-10.818 10.884-10.818S49.483 13.5 49.483 20.181c0 6.682-4.872 10.819-11.01 10.819Zm0-5.6c2.278 0 4.43-1.719 4.43-5.219 0-3.563-2.089-5.218-4.367-5.218-2.34 0-4.366 1.655-4.366 5.218.063 3.5 1.962 5.219 4.303 5.219ZM62.203 31c-6.138 0-10.758-4.137-10.758-10.819 0-6.681 4.746-10.818 10.884-10.818S73.213 13.5 73.213 20.181C73.213 26.863 68.34 31 62.203 31Zm0-5.6c2.278 0 4.429-1.719 4.429-5.219 0-3.563-2.088-5.218-4.366-5.218-2.341 0-4.366 1.655-4.366 5.218 0 3.5 1.961 5.218 4.303 5.218ZM75.49 3.954h6.391V18.21L88.21 9.68h7.91l-8.67 10.5 8.796 10.5h-7.91l-6.39-8.845v8.845h-6.391V3.954h-.064ZM97.639 4.018c0-1.973 1.518-3.5 3.796-3.5 2.278 0 3.797 1.527 3.797 3.5 0 1.909-1.519 3.436-3.797 3.436-2.278 0-3.796-1.527-3.796-3.436Zm.633 5.6h6.391v21h-6.391v-21ZM117.57 31c-6.138 0-10.567-4.137-10.567-10.819 0-6.681 4.366-10.818 10.567-10.818 6.075 0 10.441 4.073 10.441 10.5 0 .573-.063 1.273-.126 1.91h-14.491c.253 2.736 1.898 4.008 3.987 4.008 1.771 0 2.784-.89 3.353-2.036h6.834C126.493 27.818 122.822 31 117.57 31Zm-4.113-12.855h8.037c0-2.29-1.772-3.627-3.924-3.627-2.151 0-3.733 1.272-4.113 3.627ZM157.563 31c-6.138 0-10.568-4.137-10.568-10.819 0-6.681 4.366-10.818 10.568-10.818 6.074 0 10.44 4.073 10.44 10.5 0 .573-.063 1.273-.126 1.91h-14.491c.253 2.736 1.899 4.008 3.987 4.008 1.771 0 2.784-.89 3.353-2.036h6.834c-1.075 4.073-4.809 7.255-9.997 7.255Zm-4.177-12.855h8.036c0-2.29-1.771-3.627-3.923-3.627-2.088 0-3.733 1.272-4.113 3.627ZM179.583 31c-5.568 0-9.302-3.119-9.618-7.191h6.328c.126 1.463 1.455 2.418 3.227 2.418 1.645 0 2.531-.764 2.531-1.718 0-3.373-11.39-.955-11.39-8.655 0-3.563 3.037-6.49 8.479-6.49 5.379 0 8.416 2.99 8.796 7.127h-5.948c-.19-1.4-1.266-2.355-3.101-2.355-1.519 0-2.341.573-2.341 1.59 0 3.374 11.326.955 11.453 8.846.063 3.628-3.164 6.428-8.416 6.428Z" fill="#404041"/><path d="M134.656 10h-6.644l6.074 11.327h6.645L134.656 10Z" fill="#0056A7"/><path d="m133.96 21.008.19.319h6.644l-4.366-7.955-2.468 7.636Z" fill="#2E3191"/><path d="m146.109.454-11.96 20.873h6.645L152.753.454h-6.644ZM134.149 24.444h6.455V31h-6.455v-6.555Z" fill="#0056A7"/></svg>
